!!!!SEGMENT: pl-cz--iii-692--001-002_volckmer-augustin--miserere-recitativo-amplius-lava-me.krn
!!!cenid: 17xx:1149
!!!COM: Volckmer, Augustin
!!!COM-rismID: pe30020656
!!!CDT: 1755-~1820
!!!CNT:
!!!OPR: Miserere
!!!OTL: Recitativo - Amplius lava me
!!!OMV: 002
!!!PDT:
!!!AGN: Sacred
!!!SMS-siglum: PL-CZ
!!!SMS-shelfmark: III-692
!!!SMS-shelfwork: 001-002 M
!!!SMS-variant:
!!!SMS-altvar:
!!!NIFC-rismSourceID: 300001392
!!!NIFC-islandoraID: pl-cz:40420
!!!URL-pdf-islandora: https://repozytorium.nifc.pl/islandora/object/pl-cz%3A40420/datastream/PDF/view
!!!URL-scan:
!!!ONB-nifc: UWAGA: części Miserere: 1. Miserere, 2. Recitativo – Amplius lava me, 3. Aria – Quoniam, 4. Aria – Asperges me, 5. Averte faciem tuam, 6. Cor mundum, 7. Duetto – Docebo iniquos, 8. Arietta – Domine labia mea, 9. Recitativo – Quoniam si voluisses, 10. Aria – Sacrificium Deo, 11. Gloria Patri, 12. Sicut erat
!!!AIN: 1 alto 1 bass 2 cor 2 oboe 1 organ 1 soprn 1 tenor 1 viola 2 violn
!!!key: E-
**kern	**kern	**kern	**kern	**kern	**text	**kern	**kern	**kern	**kern	**kern	**kern	**kern
*part12	*part11	*part10	*part9	*part8	*part8	*part7	*part6	*part5	*part4	*part3	*part2	*part1
*staff12	*staff11	*staff10	*staff9	*staff8	*staff8	*staff7	*staff6	*staff5	*staff4	*staff3	*staff2	*staff1
*I"Organo.	*I"Viola obl=	*I"Violino Secondo.	*I"Violino Primo	*I"Basſo	*	*I"Tenore	*I"Alto .	*I"Canto	*I"Cornu Secondo in Dis	*I"Cornu Primo. in Dis	*I"Oboa Seconda	*I"Oboa Prima .
*I'org	*I'vla obl	*I'vl II	*I'vl I	*I'B	*	*I'T	*I'A	*I'S	*I'cor II	*I'cor I	*I'ob II	*I'ob I
*ICklav	*ICstr	*ICstr	*ICstr	*ICvox	*	*ICvox	*ICvox	*ICvox	*ICbras	*ICbras	*ICww	*ICww
*Iorgan	*Iviola	*Ivioln	*Ivioln	*Ibass	*	*Itenor	*Ialto	*Isoprn	*Icor	*Icor	*Ioboe	*Ioboe
*clefF4	*clefC3	*clefG2	*clefG2	*clefF4	*	*clefC4	*clefC3	*clefC1	*clefG2	*clefG2	*clefG2	*clefG2
*	*	*	*	*	*	*	*	*	*ITrd5c9	*ITrd5c9	*	*
*k[b-e-a-]	*k[b-e-a-]	*k[b-e-a-]	*k[b-e-a-]	*k[b-e-a-]	*	*k[b-e-a-]	*k[b-e-a-]	*k[b-e-a-]	*k[b-e-a-]	*k[b-e-a-]	*k[b-e-a-]	*k[b-e-a-]
*E-:	*E-:	*E-:	*E-:	*E-:	*	*E-:	*E-:	*E-:	*	*	*E-:	*E-:
*M4/4	*M4/4	*M4/4	*M4/4	*M4/4	*	*M4/4	*M4/4	*M4/4	*M4/4	*M4/4	*M4/4	*M4/4
*met(c)	*met(c)	*met(c)	*met(c)	*met(c)	*	*met(c)	*met(c)	*met(c)	*met(c)	*met(c)	*met(c)	*met(c)
=1	=1	=1	=1	=1	=1	=1	=1	=1	=1	=1	=1	=1
*	*^	*	*	*	*	*	*	*	*	*	*	*
*2\right	*	*	*	*	*	*	*	*	*	*	*	*	*
!!LO:TX:t=P:problem:4,8,16\left, middle or right	!	!	!	!	!	!	!	!	!	!	!	!	!
!	!	!	!LO:TX:a:i:t=Recita	!LO:TX:a:t=Recitativo.	!	!	!	!	!	!	!	!	!
!	!	!	!LO:TX:t=P:problem:w źródle nad systemem dla vl II, na dodatkowym systemie partia B 	!LO:TX:t=P:problem: w źródle nad systemem dla vl I, na dodatkowym systemie partia B 	!LO:TX:a:i:t=Recita	!	!LO:TX:a:i:t=Amplius Tacet	!LO:TX:a:i:t=Recit&colon; et Aria basſo Solo Tacet	!LO:TX:a:i:t=Recit&colon; et Aria basſo Solo Tacet	!LO:TX:a:i:t=Recititvo Tacet	!LO:TX:a:i:t=Recitativo Tacet	!LO:TX:a:i:t=Recitativo Tacet	!LO:TX:a:i:t=Recitativo Tacet
!LO:TX:t=P:problem:w źródle nad systemem dla org, na dodatkowym systemie partia B	!	!	!	!	!	!	!	!	!	!	!	!	!
!LO:TX:a:t=Recitativo	!	!LO:TX:i:b:t=Recta&colon;	!	!	!	!	!	!	!	!	!	!	!
2E-\	8ryy	4B-/	4G/	4e-/	8r	.	1ryy	1ryy	1ryy	1ryy	1ryy	1ryy	1ryy
.	8b-/	.	.	.	(8B-\	Am-	.	.	.	.	.	.	.
!	!LO:SIC:s=8.ee-	!	!	!	!LO:N:vis=8	!	!	!	!	!	!	!	!
.	8.dd/	4r	4r	4r	8.e-\)	.	.	.	.	.	.	.	.
.	16b-/	.	.	.	16B-\	-pli-	.	.	.	.	.	.	.
2r	8g/	2r	2r	2r	8G\	-us	.	.	.	.	.	.	.
.	8r	.	.	.	8r	.	.	.	.	.	.	.	.
.	8.b-/	.	.	.	8.B-\	la-	.	.	.	.	.	.	.
.	16e-/	.	.	.	16E-\	-va	.	.	.	.	.	.	.
=2	=2	=2	=2	=2	=2	=2	=2	=2	=2	=2	=2	=2	=2
8r	8e-/	8r	8r	8r	8E-\	me	1ryy	1ryy	1ryy	1ryy	1ryy	1ryy	1ryy
16r	8r	16r	16r	16r	8r	.	.	.	.	.	.	.	.
!LO:N:vis=8	!	!	!	!	!	!	!	!	!	!	!	!	!
16E-\	.	16B-\	16G/	16e-/	.	.	.	.	.	.	.	.	.
8E-\L	4r	8B-\L	8G/L	8e-/L	4r	.	.	.	.	.	.	.	.
8E-\J	.	8B-\J	8G/J	8e-/J	.	.	.	.	.	.	.	.	.
!	!	!	!LO:SIC:s=4A-	!	!	!	!	!	!	!	!	!	!
4F\	4r	4B-\	4c/	4d/	4r	.	.	.	.	.	.	.	.
4r	8r	4r	4r	4r	8r	.	.	.	.	.	.	.	.
.	16f/	.	.	.	16F\	ab	.	.	.	.	.	.	.
.	16f/	.	.	.	16F\	i-	.	.	.	.	.	.	.
=3	=3	=3	=3	=3	=3	=3	=3	=3	=3	=3	=3	=3	=3
2r	8d/	2r	2r	2r	8D/	-ni-	1ryy	1ryy	1ryy	1ryy	1ryy	1ryy	1ryy
.	8B-/	.	.	.	8BB-/	-qui-	.	.	.	.	.	.	.
.	16.a-/	.	.	.	16.A-\	-ta-	.	.	.	.	.	.	.
.	32f/	.	.	.	32F\	-te	.	.	.	.	.	.	.
.	16g/	.	.	.	16G\	me-	.	.	.	.	.	.	.
.	16g/	.	.	.	16G\	-a	.	.	.	.	.	.	.
!LO:LB:g=original	!	!	!	!	!	!	!	!	!	!	!	!	!
8r	2r	8r	8r	8r	2r	.	.	.	.	.	.	.	.
16r	.	16r	16r	16r	.	.	.	.	.	.	.	.	.
16E-\	.	16B-/	16g/	16dd-X\	.	.	.	.	.	.	.	.	.
8E-\L	.	8B-\L	8g/L	8dd-\L	.	.	.	.	.	.	.	.	.
8E-\J	.	8B-\J	8g/J	8dd-\J	.	.	.	.	.	.	.	.	.
=4	=4	=4	=4	=4	=4	=4	=4	=4	=4	=4	=4	=4	=4
!	!	!	!	!LO:SIC:s=8dd-	!	!	!	!	!	!	!	!	!
8E-\L	2r	8B-\L	8g/L	8dd\L	2r	.	1ryy	1ryy	1ryy	1ryy	1ryy	1ryy	1ryy
!	!	!	!	!LO:SIC:s=8dd-	!	!	!	!	!	!	!	!	!
8E-\J	.	8B-\J	8g/J	8dd\J	.	.	.	.	.	.	.	.	.
4En\	.	4B-\	4g/	4cc\	.	.	.	.	.	.	.	.	.
!	!	!	!	!	!LO:LB:g=original	!	!	!	!	!	!	!	!
2r	16r	2r	2r	4r	16r	.	.	.	.	.	.	.	.
.	16cc/	.	.	.	16c\	et	.	.	.	.	.	.	.
.	8.cc/	.	.	.	8.c\	a	.	.	.	.	.	.	.
!	!	!	!	!LO:LB:g=original	!	!	!	!	!	!	!	!	!
.	.	.	.	8r	.	.	.	.	.	.	.	.	.
!	!	!	!	!	!LO:SIC:s=pec-	!	!	!	!	!	!	!	!
.	16cc/	.	.	.	16c\	pe-	.	.	.	.	.	.	.
!	!	!	!	!LO:N:vis=4	!	!	!	!	!	!	!	!	!
.	8a-X/	.	.	8r	8A-X\	-ca-	.	.	.	.	.	.	.
!	!	!	!LO:LB:g=original	!	!	!	!	!	!	!	!	!	!
=5	=5	=5	=5	=5	=5	=5	=5	=5	=5	=5	=5	=5	=5
4r	8cc/	4r	4r	4r	8c\	-to	1ryy	1ryy	1ryy	1ryy	1ryy	1ryy	1ryy
.	16f/	.	.	.	16F\	me-	.	.	.	.	.	.	.
.	16f/	.	.	.	16F\	-o	.	.	.	.	.	.	.
16r	4r	16r	16r	16r	4r	.	.	.	.	.	.	.	.
16G\	.	16d\	16f/	16bn\	.	.	.	.	.	.	.	.	.
16G\LL	.	16d\LL	16f/LL	16b\LL	.	.	.	.	.	.	.	.	.
16G\JJ	.	16d\JJ	16f/JJ	16b\JJ	.	.	.	.	.	.	.	.	.
8G\L	2r	8d\L	8f/L	8b\L	2r	.	.	.	.	.	.	.	.
8G\J	.	8d\J	8f/J	8b\J	.	.	.	.	.	.	.	.	.
4G\	.	4d\	4f/	4b\	.	.	.	.	.	.	.	.	.
!	!	!LO:LB:g=original	!	!	!	!	!	!	!	!	!	!	!
=6	=6	=6	=6	=6	=6	=6	=6	=6	=6	=6	=6	=6	=6
2r	8r	2r	2r	2r	8r	.	1ryy	1ryy	1ryy	1ryy	1ryy	1ryy	1ryy
.	16qqbn/LL	.	.	.	16qqBn/LL	.	.	.	.	.	.	.	.
.	16qqdd/JJ	.	.	.	16qqd/JJ	.	.	.	.	.	.	.	.
.	8cc/	.	.	.	8c\	mun-	.	.	.	.	.	.	.
.	8g/	.	.	.	8G\	-da	.	.	.	.	.	.	.
.	8g/	.	.	.	8G\	me	.	.	.	.	.	.	.
8r	2r	8r	8r	8r	2r	.	.	.	.	.	.	.	.
16r	.	16r	16r	16r	.	.	.	.	.	.	.	.	.
16G\	.	16d\	16f/	16bn\	.	.	.	.	.	.	.	.	.
8C/	.	8g\L	8en/L	8cc\L	.	.	.	.	.	.	.	.	.
8C/	.	8g\J	8e/J	8cc\J	.	.	.	.	.	.	.	.	.
*	*v	*v	*	*	*	*	*	*	*	*	*	*	*
=7	=7	=7	=7	=7	=7	=7	=7	=7	=7	=7	=7	=7
*	*2\right	*	*2\right	*	*	*	*	*	*	*	*	*
!	!	!LO:SIC:s=2en	!	!	!	!	!	!	!	!	!	!
2C/	2g\	2e-/	2cc\	1r	.	1ryy	1ryy	1ryy	1ryy	1ryy	1ryy	1ryy
2r	2r	2r	2r	.	.	.	.	.	.	.	.	.
==	==	==	==	==	==	==	==	==	==	==	==	==
*-	*-	*-	*-	*-	*-	*-	*-	*-	*-	*-	*-	*-
!!!system-decoration: [(s1,s2)][(s3,s4)][(s5,s6,s7,s8)][(s9,s10,s11)]s12
!!!ENC: Andrzej Borzym
!!!END: 2020-10-30
!!!ENC: Jan Barakat
!!!END: 2022-04-22
